X: 10902
M: 2/4
L: 1/16
K: F
c2 |\
cBAc c2c2 | cAdB c4 | ABcA GdBG | FcAF C4 |\
fefg agcA | BAdB c4 | A,6 B,2 | C3EF2 H|]
c2 |\
c2b2 g2f2 | ebge f2c2 | c2b2 g2g2 | ebge f2f2 |\
b2b2 g4 | c'2c'2 a2f2 | efga bgfe | (g4 "^D.C."f2) |]
d^cde fefg | a2a2 a2ga | gfeg fedf | ed^ce d2cA |\
d^cde fefg | a2a2 a2ga | gfeg fedf | edef "^D.C."e4 |]


